static/images/visual-thinking-hbo-logo-footer.svg

<svg width="355" height="77" viewBox="0 0 355 77" fill="none" xmlns="http://www.w3.org/2000/svg">
<path d="M112.9 8.6L107.86 22.97L102.82 8.6H97.99L105.64 29H109.87L117.52 8.6H112.9ZM120.694 11.42H124.954V7.49H120.694V11.42ZM120.694 29H124.954V14.09H120.694V29ZM139.836 20.24L133.506 19.82L132.996 19.31V17.99L133.656 17.33H137.556L139.206 18.98L141.816 16.37L139.536 14.09H131.256L128.736 16.61V20.51L130.986 22.76L137.316 23.18L137.826 23.69V25.1L137.166 25.76H132.576L130.806 23.99L128.196 26.6L130.596 29H139.566L142.086 26.48V22.49L139.836 20.24ZM154.657 14.09V23.66L152.797 25.52H150.487L149.617 24.65V14.09H145.357V26.3L148.057 29H152.527L155.047 26.48L155.137 29H158.917V14.09H154.657ZM173.492 14.09H165.152L162.662 16.58L165.272 19.19L167.132 17.33H170.972L171.932 18.29V19.91L164.642 20.39L162.392 22.64V26.48L164.912 29H169.802L172.322 26.48L172.412 29H176.192V16.79L173.492 14.09ZM167.372 25.76L166.652 25.04V23.63L167.312 22.97L171.932 22.67V23.66L169.832 25.76H167.372ZM185.292 25.52L184.362 24.59V7.4H180.102V25.97L183.132 29H186.942V25.52H185.292ZM214.272 8.6H196.872V12.62H203.322V29H207.822V12.62H214.272V8.6ZM228.527 14.09H224.447L221.927 16.61V7.4H217.667V29H221.927V19.82L224.177 17.57H226.097L226.967 18.44V29H231.227V16.79L228.527 14.09ZM235.391 11.42H239.651V7.49H235.391V11.42ZM235.391 29H239.651V14.09H235.391V29ZM254.894 14.09H250.424L247.904 16.61L247.814 14.09H244.034V29H248.294V19.43L250.154 17.57H252.464L253.334 18.44V29H257.594V16.79L254.894 14.09ZM276.758 29L270.338 21.26L276.308 14.09H271.268L266.018 20.57V7.4H261.758V29H266.018V22.34L271.388 29H276.758ZM279.249 11.42H283.509V7.49H279.249V11.42ZM279.249 29H283.509V14.09H279.249V29ZM298.751 14.09H294.281L291.761 16.61L291.671 14.09H287.891V29H292.151V19.43L294.011 17.57H296.321L297.191 18.44V29H301.451V16.79L298.751 14.09ZM318.816 14.09H309.156L304.956 18.29V25.7L308.136 28.88H312.036L314.556 26.36V30.41L312.906 32.06H309.576L308.016 30.5L305.406 33.11L307.596 35.3H315.216L318.816 31.7V14.09ZM312.306 25.4H310.566L309.216 24.05V19.58L311.226 17.57H314.556V23.18L312.306 25.4ZM99.19 48.42H103.45V44.49H99.19V48.42ZM99.19 66H103.45V51.09H99.19V66ZM118.693 51.09H114.223L111.703 53.61L111.613 51.09H107.833V66H112.093V56.43L113.953 54.57H116.263L117.133 55.44V66H121.393V53.79L118.693 51.09ZM144.269 51.09H140.189L137.669 53.61V44.4H133.409V66H137.669V56.82L139.919 54.57H141.839L142.709 55.44V66H146.969V53.79L144.269 51.09ZM161.453 51.09H153.773L150.593 54.27V62.82L153.773 66H161.903L164.633 63.27L162.083 60.72L160.043 62.76H155.933L154.853 61.68V59.88H164.633V54.27L161.453 51.09ZM154.853 57V55.41L155.933 54.33H159.293L160.373 55.41V57H154.853ZM178.8 54.57V51.09H174.57V45.6H171.21L170.55 51.09H167.04V54.57H170.31V62.91L173.4 66H178.8V62.52H175.83L174.57 61.26V54.57H178.8ZM203.476 45.6V53.64H195.076V45.6H190.576V66H195.076V57.66H203.476V66H207.976V45.6H203.476ZM227.925 55.53L229.875 53.58V48.99L226.485 45.6H213.135V66H227.085L230.475 62.61V58.08L227.925 55.53ZM217.635 49.56H224.355L225.375 50.58V52.71L224.235 53.85H217.635V49.56ZM224.955 62.04H217.635V57.69H224.505L225.975 59.16V61.02L224.955 62.04ZM248.166 45.6H238.206L234.186 49.62V61.98L238.206 66H248.166L252.186 61.98V49.62L248.166 45.6ZM246.036 61.98H240.336L238.686 60.33V51.27L240.336 49.62H246.036L247.686 51.27V60.33L246.036 61.98Z" fill="#090940"/>
<path d="M23.7096 49.059V62.0525L34.9103 68.5492L46.111 62.0525V49.059L34.9103 42.5537L23.7096 49.059Z" fill="#FEB51E" stroke="white" stroke-miterlimit="10"/>
<path d="M46.3508 9.64864V22.6421L57.5515 29.1388L68.7436 22.6421V9.64864L57.5515 3.15193L46.3508 9.64864Z" fill="#FEB51E" stroke="white" stroke-miterlimit="10"/>
<path d="M23.7096 9.64864V22.6421L34.9103 29.1388L46.111 22.6421V9.64864L34.9103 3.15193L23.7096 9.64864Z" fill="#FEB51E" stroke="white" stroke-miterlimit="10"/>
<path d="M1 9.64857V22.642L12.2007 29.1387L23.4013 22.642V9.64857L12.2007 3.15186L1 9.64857Z" fill="#FEB51E" stroke="white" stroke-miterlimit="10"/>
<path d="M35.0471 29.3366V42.3387L46.2478 48.8354L57.4485 42.3387V29.3366L46.2478 22.8399L35.0471 29.3366Z" fill="#FEB51E" stroke="white" stroke-miterlimit="10"/>
<path d="M12.4406 29.3366V42.3387L23.6413 48.8354L34.842 42.3387V29.3366L23.6413 22.8399L12.4406 29.3366Z" fill="#FEB51E" stroke="white" stroke-miterlimit="10"/>
<path d="M16.2597 11.9978L13.4681 19.7594H10.9248L8.13321 11.9978H10.9077L12.2607 16.5842L13.6051 11.9978H16.2597V11.9978Z" fill="#41014A"/>
<path d="M26.9381 32.2536V39.628H24.9942V36.754H22.4252V39.628H20.4814V32.2536H22.4252V35.0158H24.9942V32.2536H26.9381Z" fill="#41014A"/>
<path d="M49.5619 36.5989V38.2768L48.3202 39.5245H43.1395V32.1501H48.1061L49.3478 33.3978V35.05L48.6884 35.7126L49.5619 36.5989V36.5989ZM45.0833 35.0672H47.0871L47.404 34.7488V34.0776L47.1642 33.8367H45.0833V35.0586V35.0672ZM47.618 37.597V37.0033L47.2156 36.5989H45.0748V37.838H47.3697L47.6095 37.597H47.618Z" fill="#41014A"/>
<path d="M38.4724 53.3271V57.7758L37.0167 59.2387H33.2831L31.8274 57.7758V53.3271L33.2831 51.8643H37.0167L38.4724 53.3271ZM36.5286 57.0444V54.0499L36.0747 53.5938H34.2165L33.7627 54.0499V57.0444L34.2165 57.5005H36.0747L36.5286 57.0444Z" fill="#41014A"/>
<path d="M58.6646 15.4224V18.3825L59.2469 18.9676H60.6941V21.0758H57.6884L56.0357 19.4151V15.4138H54.4601V13.3056H56.1898L56.5581 10.5348H58.656V13.3056H60.6941V15.4138H58.656L58.6646 15.4224Z" fill="#41014A"/>
</svg>

<svg width="355" height="77" viewBox="0 0 355 77" fill="none" xmlns="http://www.w3.org/2000/svg">
    <path d="m112.9 8.6-5.04 14.37-5.04-14.37h-4.83l7.65 20.4h4.23l7.65-20.4h-4.62Zm7.794 2.82h4.26V7.49h-4.26v3.93Zm0 17.58h4.26V14.09h-4.26V29Zm19.142-8.76-6.33-.42-.51-.51v-1.32l.66-.66h3.9l1.65 1.65 2.61-2.61-2.28-2.28h-8.28l-2.52 2.52v3.9l2.25 2.25 6.33.42.51.51v1.41l-.66.66h-4.59l-1.77-1.77-2.61 2.61 2.4 2.4h8.97l2.52-2.52v-3.99l-2.25-2.25Zm14.821-6.15v9.57l-1.86 1.86h-2.31l-.87-.87V14.09h-4.26V26.3l2.7 2.7h4.47l2.52-2.52.09 2.52h3.78V14.09h-4.26Zm18.835 0h-8.34l-2.49 2.49 2.61 2.61 1.86-1.86h3.84l.96.96v1.62l-7.29.48-2.25 2.25v3.84l2.52 2.52h4.89l2.52-2.52.09 2.52h3.78V16.79l-2.7-2.7Zm-6.12 11.67-.72-.72v-1.41l.66-.66 4.62-.3v.99l-2.1 2.1h-2.46Zm17.92-.24-.93-.93V7.4h-4.26v18.57l3.03 3.03h3.81v-3.48h-1.65Zm28.98-16.92h-17.4v4.02h6.45V29h4.5V12.62h6.45V8.6Zm14.255 5.49h-4.08l-2.52 2.52V7.4h-4.26V29h4.26v-9.18l2.25-2.25h1.92l.87.87V29h4.26V16.79l-2.7-2.7Zm6.864-2.67h4.26V7.49h-4.26v3.93Zm0 17.58h4.26V14.09h-4.26V29Zm19.503-14.91h-4.47l-2.52 2.52-.09-2.52h-3.78V29h4.26v-9.57l1.86-1.86h2.31l.87.87V29h4.26V16.79l-2.7-2.7ZM276.758 29l-6.42-7.74 5.97-7.17h-5.04l-5.25 6.48V7.4h-4.26V29h4.26v-6.66l5.37 6.66h5.37Zm2.491-17.58h4.26V7.49h-4.26v3.93Zm0 17.58h4.26V14.09h-4.26V29Zm19.502-14.91h-4.47l-2.52 2.52-.09-2.52h-3.78V29h4.26v-9.57l1.86-1.86h2.31l.87.87V29h4.26V16.79l-2.7-2.7Zm20.065 0h-9.66l-4.2 4.2v7.41l3.18 3.18h3.9l2.52-2.52v4.05l-1.65 1.65h-3.33l-1.56-1.56-2.61 2.61 2.19 2.19h7.62l3.6-3.6V14.09Zm-6.51 11.31h-1.74l-1.35-1.35v-4.47l2.01-2.01h3.33v5.61l-2.25 2.22ZM99.19 48.42h4.26v-3.93h-4.26v3.93Zm0 17.58h4.26V51.09h-4.26V66Zm19.503-14.91h-4.47l-2.52 2.52-.09-2.52h-3.78V66h4.26v-9.57l1.86-1.86h2.31l.87.87V66h4.26V53.79l-2.7-2.7Zm25.576 0h-4.08l-2.52 2.52V44.4h-4.26V66h4.26v-9.18l2.25-2.25h1.92l.87.87V66h4.26V53.79l-2.7-2.7Zm17.184 0h-7.68l-3.18 3.18v8.55l3.18 3.18h8.13l2.73-2.73-2.55-2.55-2.04 2.04h-4.11l-1.08-1.08v-1.8h9.78v-5.61l-3.18-3.18Zm-6.6 5.91v-1.59l1.08-1.08h3.36l1.08 1.08V57h-5.52Zm23.947-2.43v-3.48h-4.23V45.6h-3.36l-.66 5.49h-3.51v3.48h3.27v8.34L173.4 66h5.4v-3.48h-2.97l-1.26-1.26v-6.69h4.23Zm24.676-8.97v8.04h-8.4V45.6h-4.5V66h4.5v-8.34h8.4V66h4.5V45.6h-4.5Zm24.449 9.93 1.95-1.95v-4.59l-3.39-3.39h-13.35V66h13.95l3.39-3.39v-4.53l-2.55-2.55Zm-10.29-5.97h6.72l1.02 1.02v2.13l-1.14 1.14h-6.6v-4.29Zm7.32 12.48h-7.32v-4.35h6.87l1.47 1.47v1.86l-1.02 1.02Zm23.211-16.44h-9.96l-4.02 4.02v12.36l4.02 4.02h9.96l4.02-4.02V49.62l-4.02-4.02Zm-2.13 16.38h-5.7l-1.65-1.65v-9.06l1.65-1.65h5.7l1.65 1.65v9.06l-1.65 1.65Z" fill="#090940"/>
    <path d="M23.71 49.059v12.994l11.2 6.496 11.201-6.497V49.06l-11.2-6.505-11.201 6.505ZM46.35 9.649v12.993l11.201 6.497 11.193-6.497V9.65L57.55 3.152l-11.2 6.497ZM23.71 9.649v12.993l11.2 6.497 11.201-6.497V9.65l-11.2-6.497L23.71 9.649ZM1 9.649v12.993l11.2 6.497 11.201-6.497V9.649l-11.2-6.497L1 9.649ZM35.047 29.337v13.002l11.2 6.496L57.45 42.34V29.337L46.248 22.84l-11.2 6.497ZM12.44 29.337v13.002l11.201 6.496 11.201-6.496V29.337l-11.2-6.497-11.201 6.497Z" fill="#FEB51E" stroke="#fff" stroke-miterlimit="10"/>
    <path d="m16.26 11.998-2.792 7.761h-2.543l-2.792-7.761h2.775l1.353 4.586 1.344-4.586h2.655ZM26.938 32.254v7.374h-1.944v-2.874h-2.569v2.874h-1.944v-7.374h1.944v2.762h2.57v-2.762h1.943ZM49.562 36.599v1.678l-1.242 1.248h-5.18V32.15h4.966l1.242 1.248v1.652l-.66.663.874.886Zm-4.479-1.532h2.004l.317-.318v-.671l-.24-.241h-2.08v1.23Zm2.535 2.53v-.594l-.402-.404h-2.141v1.239h2.295l.24-.241h.008ZM38.472 53.327v4.449l-1.455 1.463h-3.734l-1.456-1.463v-4.449l1.456-1.463h3.734l1.455 1.463Zm-1.943 3.717V54.05l-.454-.456h-1.858l-.454.456v2.994l.454.457h1.858l.454-.457ZM58.665 15.422v2.96l.582.586h1.447v2.108h-3.006l-1.652-1.66v-4.002H54.46v-2.108h1.73l.368-2.771h2.098v2.77h2.038v2.109h-2.038l.009.008Z" fill="#41014A"/>
</svg>
